src/components/00-materials/images-raw/Tools.svg

<svg width="96" height="96" viewBox="0 0 96 96" fill="none" xmlns="http://www.w3.org/2000/svg">
<path d="M18 77.5501C16.5009 76.05 15.6587 74.0159 15.6587 71.8951C15.6587 69.7743 16.5009 67.7402 18 66.2401L35.33 48.8501L46.65 60.1701L29.26 77.5501C27.762 79.034 25.7386 79.8665 23.63 79.8665C21.5214 79.8665 19.4981 79.034 18 77.5501V77.5501Z" stroke="#00008F" stroke-width="2" stroke-linecap="round" stroke-linejoin="round"/>
<path d="M38.45 61.2903L25.73 74.0203M43.11 56.6303L70.98 28.7603L77.37 26.6203L79.47 18.8603L76.64 16.0303L68.81 18.2003L66.74 24.5203L38.87 52.3903L43.11 56.6303ZM34.21 57.0503L21.48 69.7703L34.21 57.0503Z" stroke="#00008F" stroke-width="2" stroke-linecap="round" stroke-linejoin="round"/>
<path d="M49 42.3002L36.09 29.4402C36.8174 27.623 36.9955 25.6322 36.6022 23.7146C36.2088 21.7971 35.2613 20.0372 33.8772 18.6531C32.4931 17.2689 30.7332 16.3215 28.8156 15.9281C26.8981 15.5348 24.9073 15.7128 23.09 16.4402L28.86 22.2102L23.2 27.8702L17.43 22.1002C16.7026 23.9175 16.5245 25.9083 16.9179 27.8259C17.3112 29.7434 18.2587 31.5033 19.6428 32.8874C21.027 34.2716 22.7869 35.219 24.7044 35.6124C26.6219 36.0057 28.6127 35.8277 30.43 35.1002L43.3 48.0002L49 42.3002ZM79.52 72.8602C80.2474 71.043 80.4255 69.0522 80.0322 67.1346C79.6388 65.2171 78.6913 63.4572 77.3072 62.0731C75.9231 60.6889 74.1632 59.7415 72.2456 59.3481C70.3281 58.9548 68.3373 59.1328 66.52 59.8602L53.2 46.5402L47.54 52.2002L60.91 65.5602C60.1826 67.3775 60.0045 69.3683 60.3979 71.2858C60.7912 73.2034 61.7387 74.9633 63.1228 76.3474C64.507 77.7316 66.2669 78.679 68.1844 79.0724C70.1019 79.4657 72.0927 79.2877 73.91 78.5602L68.14 72.7902L73.8 67.1302L79.52 72.8602Z" stroke="#00008F" stroke-width="2" stroke-linecap="round" stroke-linejoin="round"/>
</svg>

<svg width="96" height="96" viewBox="0 0 96 96" fill="none" xmlns="http://www.w3.org/2000/svg"><path d="M18 77.55a8 8 0 010-11.31l17.33-17.39 11.32 11.32-17.39 17.38a8 8 0 01-11.26 0v0z" stroke="#00008F" stroke-width="2" stroke-linecap="round" stroke-linejoin="round"/><path d="M38.45 61.29L25.73 74.02m17.38-17.39l27.87-27.87 6.39-2.14 2.1-7.76-2.83-2.83-7.83 2.17-2.07 6.32-27.87 27.87 4.24 4.24zm-8.9.42L21.48 69.77l12.73-12.72z" stroke="#00008F" stroke-width="2" stroke-linecap="round" stroke-linejoin="round"/><path d="M49 42.3L36.09 29.44a10 10 0 00-13-13l5.77 5.77-5.66 5.66-5.77-5.77a10 10 0 0013 13L43.3 48l5.7-5.7zm30.52 30.56a10 10 0 00-13-13L53.2 46.54l-5.66 5.66 13.37 13.36a10 10 0 0013 13l-5.77-5.77 5.66-5.66 5.72 5.73z" stroke="#00008F" stroke-width="2" stroke-linecap="round" stroke-linejoin="round"/></svg>
